X: 20412
T: NEAPOLITAN WALTZ
R: waltz, mazurka
B: "Edinburgh Repository of Music" v.2 p.41 #2
F: http://digital.nls.uk/special-collections-of-printed-music/pageturner.cfm?id=87776133
Z: 2015 John Chambers <jc:trillian.mit.edu>
N: The 3rd strain has initial repeat but no final repeat; not fixed. (AABBCAB is a likely order.)
M: 3/4
L: 1/8
K: C
|:!p!\
c>de>fg>a | (a>g)g>^fg2 | c'>ge>ce>g | (gf)d4 |\
c>de>fg>a | agg^fg2 | c'>ge>cd>B | c2z2z2 :|
|:\
g3(gec) | (gf)d4 | (c/d/c/B/) (ce).g.c' | (bc').d'.bg2 |\
{Gce}g3(gec) | (gf)d4 | (cd)(ef).g.B | "_Fine."c4z2 H:|
|:!p!\
(gG)(eG)(cG) | (gG)(eG)(cG) | (dB)(GB) (GB) | (cG).E.G (ce) |\
(gG)(eG)(cG) | (gG)(eG)(cG) | dGBGBG | c6 |]
